static/img/pictures/roadmap/10.svg

<?xml version="1.0" encoding="UTF-8" standalone="no"?>
<svg
   xmlns:dc="http://purl.org/dc/elements/1.1/"
   xmlns:cc="http://creativecommons.org/ns#"
   xmlns:rdf="http://www.w3.org/1999/02/22-rdf-syntax-ns#"
   xmlns:svg="http://www.w3.org/2000/svg"
   xmlns="http://www.w3.org/2000/svg"
   xmlns:xlink="http://www.w3.org/1999/xlink"
   height="50"
   width="50"
   version="1.1"
   viewBox="0 0 50 50"
   data-name="Слой 1"
   id="Слой_1">
  <metadata
     id="metadata1638">
    <rdf:RDF>
      <cc:Work
         rdf:about="">
        <dc:format>image/svg+xml</dc:format>
        <dc:type
           rdf:resource="http://purl.org/dc/dcmitype/StillImage" />
        <dc:title>icon</dc:title>
      </cc:Work>
    </rdf:RDF>
  </metadata>
  <defs
     id="defs1636">
    <linearGradient
       id="linearGradient2187">
      <stop
         id="stop2183"
         offset="0"
         style="stop-color:#3cfadb;stop-opacity:1" />
      <stop
         id="stop2185"
         offset="1"
         style="stop-color:#29b7f0;stop-opacity:1" />
    </linearGradient>
    <linearGradient
       gradientTransform="matrix(0.74905356,0,0,0.74906289,0.00805054,5.2055634e-5)"
       y2="1.657369"
       x2="65.607368"
       y1="66.602921"
       x1="0.74444258"
       gradientUnits="userSpaceOnUse"
       id="linearGradient2210"
       xlink:href="#linearGradient2187" />
  </defs>
  <title
     id="title1603">icon</title>
  <path
     id="path1607"
     d="M 25.003906 0 A 4.3969444 4.3969992 0 0 0 20.607422 4.4042969 A 4.3969444 4.3969992 0 0 0 23.550781 8.5546875 A 1.7378043 1.7378259 0 0 0 23.505859 8.90625 L 23.505859 13.019531 A 1.4981071 1.4981258 0 0 0 25.003906 14.517578 A 1.4981071 1.4981258 0 0 0 26.501953 13.019531 L 26.501953 8.90625 A 1.3333153 1.3333319 0 0 0 26.457031 8.5546875 A 4.3969444 4.3969992 0 0 0 25.003906 0 z M 11.480469 8.3828125 A 3.1834776 3.1835173 0 0 0 11.574219 14.75 A 3.0711196 3.0711578 0 0 0 12.486328 14.599609 L 14.869141 16.974609 A 1.4981071 1.4981258 0 0 0 16.982422 14.861328 L 14.607422 12.478516 A 3.0711196 3.0711578 0 0 0 14.757812 11.566406 A 3.1834776 3.1835173 0 0 0 11.480469 8.3828125 z M 38.574219 8.3847656 A 3.1834776 3.1835173 0 0 0 35.257812 11.566406 A 3.0711196 3.0711578 0 0 0 35.408203 12.478516 L 33.025391 14.861328 A 1.4981071 1.4981258 0 0 0 33.025391 16.974609 A 1.4981071 1.4981258 0 0 0 34.089844 17.416016 A 1.4981071 1.4981258 0 0 0 35.146484 16.974609 L 37.527344 14.599609 A 3.0711196 3.0711578 0 0 0 38.441406 14.75 A 3.1834776 3.1835173 0 0 0 38.574219 8.3847656 z M 25.003906 17.835938 A 7.1609523 7.1610415 0 0 0 25.003906 32.158203 A 7.1609523 7.1610415 0 0 0 25.003906 17.835938 z M 4.5566406 20.59375 A 4.4044349 4.4044898 0 1 0 8.5625 26.449219 A 1.3183343 1.3183507 0 0 0 8.90625 26.494141 L 13.027344 26.494141 A 1.4981071 1.4981258 0 1 0 13.027344 23.498047 L 8.90625 23.498047 A 1.7378043 1.7378259 0 0 0 8.5625 23.542969 A 4.4044349 4.4044898 0 0 0 4.5566406 20.59375 z M 45.603516 20.599609 A 4.3969444 4.3969992 0 0 0 41.453125 23.542969 A 1.8127096 1.8127322 0 0 0 41.101562 23.498047 L 36.988281 23.498047 A 1.4981071 1.4981258 0 0 0 36.988281 26.494141 L 41.101562 26.494141 A 1.3782586 1.3782757 0 0 0 41.453125 26.449219 A 4.3969444 4.3969992 0 1 0 45.603516 20.599609 z M 25.003906 20.832031 A 4.1647378 4.1647897 0 1 1 25.003906 29.160156 A 4.1647378 4.1647897 0 1 1 25.003906 20.832031 z M 34.064453 32.580078 A 1.4989404 1.4989591 0 0 0 33.025391 35.138672 L 35.408203 37.521484 A 3.0711196 3.0711578 0 0 0 35.257812 38.433594 A 3.1834776 3.1835173 0 1 0 38.441406 35.25 A 3.0711196 3.0711578 0 0 0 37.527344 35.400391 L 35.146484 33.019531 A 1.4989404 1.4989591 0 0 0 34.064453 32.580078 z M 15.886719 32.632812 A 1.4981071 1.4981258 0 0 0 14.869141 33.019531 L 12.486328 35.400391 A 3.0711196 3.0711578 0 0 0 11.574219 35.25 A 3.1834776 3.1835173 0 1 0 14.757812 38.433594 A 3.0711196 3.0711578 0 0 0 14.607422 37.521484 L 16.982422 35.138672 A 1.4981071 1.4981258 0 0 0 15.886719 32.632812 z M 25.003906 35.482422 A 1.4981071 1.4981258 0 0 0 23.505859 36.980469 L 23.505859 41.09375 A 1.8127096 1.8127322 0 0 0 23.550781 41.445312 A 4.4044349 4.4044898 0 0 0 25.003906 50 A 4.4044349 4.4044898 0 0 0 29.408203 45.595703 A 4.4044349 4.4044898 0 0 0 26.457031 41.445312 A 1.3782586 1.3782757 0 0 0 26.501953 41.09375 L 26.501953 36.980469 A 1.4981071 1.4981258 0 0 0 25.003906 35.482422 z "
     style="fill:url(#linearGradient2210);fill-opacity:1;stroke-width:1.33500135" />
</svg>

<svg xmlns="http://www.w3.org/2000/svg" xmlns:xlink="http://www.w3.org/1999/xlink" height="50" width="50" data-name="Слой 1"><defs><linearGradient id="a"><stop offset="0" stop-color="#3cfadb"/><stop offset="1" stop-color="#29b7f0"/></linearGradient><linearGradient gradientTransform="matrix(.74905 0 0 .74906 .008 0)" y2="1.657" x2="65.607" y1="66.603" x1=".744" gradientUnits="userSpaceOnUse" id="b" xlink:href="#a"/></defs><path d="M25.004 0a4.397 4.397 0 0 0-4.397 4.404 4.397 4.397 0 0 0 2.944 4.15 1.738 1.738 0 0 0-.045.352v4.114a1.498 1.498 0 0 0 1.498 1.498 1.498 1.498 0 0 0 1.498-1.498V8.906a1.333 1.333 0 0 0-.045-.351A4.397 4.397 0 0 0 25.004 0zM11.48 8.383a3.183 3.184 0 0 0 .094 6.367 3.071 3.071 0 0 0 .912-.15l2.383 2.375a1.498 1.498 0 0 0 2.113-2.114l-2.375-2.382a3.071 3.071 0 0 0 .15-.913 3.183 3.184 0 0 0-3.277-3.183zm27.094.002a3.183 3.184 0 0 0-3.316 3.181 3.071 3.071 0 0 0 .15.913l-2.383 2.382a1.498 1.498 0 0 0 0 2.114 1.498 1.498 0 0 0 1.065.441 1.498 1.498 0 0 0 1.056-.441l2.381-2.375a3.071 3.071 0 0 0 .914.15 3.183 3.184 0 0 0 .133-6.365zm-13.57 9.45a7.161 7.161 0 0 0 0 14.323 7.161 7.161 0 0 0 0-14.322zm-20.447 2.76a4.404 4.404 0 1 0 4.005 5.855 1.318 1.318 0 0 0 .344.045h4.121a1.498 1.498 0 1 0 0-2.996h-4.12a1.738 1.738 0 0 0-.345.045 4.404 4.404 0 0 0-4.005-2.95zm41.047.006a4.397 4.397 0 0 0-4.15 2.943 1.813 1.813 0 0 0-.352-.045h-4.114a1.498 1.498 0 0 0 0 2.996h4.114a1.378 1.378 0 0 0 .351-.045 4.397 4.397 0 1 0 4.15-5.85zm-20.6.232a4.165 4.165 0 1 1 0 8.328 4.165 4.165 0 1 1 0-8.328zm9.06 11.748a1.499 1.499 0 0 0-1.039 2.559l2.383 2.382a3.071 3.071 0 0 0-.15.913 3.183 3.184 0 1 0 3.183-3.184 3.071 3.071 0 0 0-.914.15l-2.38-2.38a1.499 1.499 0 0 0-1.083-.44zm-18.177.053a1.498 1.498 0 0 0-1.018.387l-2.383 2.38a3.071 3.071 0 0 0-.912-.15 3.183 3.184 0 1 0 3.184 3.184 3.071 3.071 0 0 0-.15-.913l2.374-2.382a1.498 1.498 0 0 0-1.095-2.506zm9.117 2.85a1.498 1.498 0 0 0-1.498 1.497v4.114a1.813 1.813 0 0 0 .045.351A4.404 4.404 0 0 0 25.004 50a4.404 4.404 0 0 0 4.404-4.404 4.404 4.404 0 0 0-2.951-4.15 1.378 1.378 0 0 0 .045-.352V36.98a1.498 1.498 0 0 0-1.498-1.498z" fill="url(#b)" stroke-width="1.335"/></svg>
